X:1
T:[ID 1-98]
T:[ID 1-98]
T:Bezeichnung standardisiert: Klompen Tantz; Klompen Tantz
T:Urheber unbekannt Datum in der hier transkribierten schriftlichen Quelle: vermutlich vor 1767
C:Urheber unbekannt
C:Datum in der hier transkribierten schriftlichen Quelle: vermutlich vor 1767
L:1/8
M:4/4
K:G
V:1 treble 
V:1
 GFGA G2 D2 | GFGA G2 D2 | G2 A2 B2 G2 | B2 c2 d2 gf | e2 d2 c2 B2 | A4 E2 A2 | F2 D2 E2 A2 | %7
 F2 D2 E2 A2 | AGAB A2 B2 | A4 z2 :: AB | c2 c2 c2 dc | B2 B2 B2 gf | e2 g2 f2 e2 | d4 B2 e2 | %15
 e4 B2 d2 | e6 gf | egfe ^d3 e | e6 AA | c2 B2 A2 G2 | AGFE D2 d2 | B4 A2 d2 | B4 A2 AB | %23
 c2 B2 A2 G2 | AGFE D2 d2 | B4 A4 | GFGA G2 d2 | B4 A4 | G6 :| %29

